priv/static/images/frameworks/phoenix.svg

<svg
  width="128"
  height="128"
  viewBox="0 0 128 128"
  fill="none"
  xmlns="http://www.w3.org/2000/svg"
>
  <path
    fill-rule="evenodd"
    clip-rule="evenodd"
    d="M27.2159 20.304C28.0799 20.684 29.0229 20.626 29.9259 20.736C36.8099 21.57 42.3929 24.892 47.2399 29.664C51.1999 33.563 54.6239 37.934 58.2509 42.126C61.2209 45.56 64.4029 48.754 68.2629 51.201C72.3369 53.78 76.7649 55.216 81.5979 55.339C81.7709 55.343 81.9399 55.351 82.1109 55.362C82.1259 55.363 82.1369 55.404 82.1919 55.505C80.3939 56.753 78.4399 57.672 76.3059 58.175C71.4819 59.311 67.1229 58.351 63.3059 55.143C62.2399 54.247 61.2139 53.298 60.1219 52.435C58.4109 51.079 56.4589 50.371 54.2529 50.634C51.1559 51.005 49.4709 53.348 50.1909 56.394C51.3159 61.151 54.0439 64.8769 57.8569 67.853C61.9699 71.063 66.6909 72.811 71.8149 73.534C76.8979 74.249 81.9589 74.241 86.9329 72.745C87.2579 72.646 87.5769 72.61 87.7379 72.974C87.8889 73.322 87.5119 73.385 87.3419 73.524C86.1699 74.47 85.0079 75.428 83.7979 76.327C79.4229 79.57 74.5079 81.441 69.0839 81.839C65.1539 82.125 61.7239 80.756 58.6839 78.317C56.2879 76.398 54.4219 73.985 52.4539 71.667C50.8149 69.738 49.1909 67.798 47.5399 65.881C46.5179 64.694 45.4239 63.576 44.1289 62.674C42.0879 61.257 39.8529 60.775 37.4069 61.265C34.0739 61.933 32.2549 64.694 33.1519 67.993C35.0979 75.146 39.6419 79.6049 46.9969 81.06C47.2049 81.101 47.4629 81.025 47.6279 81.34C43.8309 82.116 40.1139 81.921 36.4679 80.725C29.1139 78.31 23.1789 74.106 19.5659 67.065C17.3079 62.667 16.3539 57.933 16.1209 53.029C15.9709 49.878 16.0889 46.709 15.6009 43.58C15.0229 39.884 14.1359 36.284 11.9849 33.128C9.56086 29.57 6.22286 27.753 1.88786 27.841C1.37786 27.851 0.86686 27.843 0.34186 27.843C0.33686 27.488 0.62986 27.42 0.80986 27.285C4.41786 24.581 8.58886 23.11 12.8489 21.857C15.2519 21.15 17.7169 20.736 20.2079 20.478C20.3889 20.459 20.6189 20.547 20.7289 20.304H27.2159ZM15.0409 25.583C15.9659 26.561 16.9399 27.24 18.1949 27.427C19.7319 27.656 21.3219 26.815 21.8449 25.522C22.2099 24.622 22.1659 24.56 21.2259 24.634C20.7179 24.673 20.2079 24.698 19.7009 24.755C18.1639 24.925 16.6299 25.117 15.0409 25.583Z"
    fill="#F05323"
  />
  <path
    fill-rule="evenodd"
    clip-rule="evenodd"
    d="M127.923 80.2179C126.811 80.6649 125.775 81.2899 124.547 81.4679C121.582 81.8979 118.901 81.3499 116.625 79.3009C116.203 78.9219 115.773 78.5449 115.394 78.1269C113.532 76.0779 111.228 74.9379 108.473 74.6939C108.257 74.6749 108.042 74.6139 107.796 74.5679C110.471 72.2059 115.095 71.7469 118.469 73.4679C119.859 74.1779 121.023 75.1669 122.064 76.2989C123.692 78.0709 125.614 79.3549 127.923 80.0439V80.2179ZM83.5429 107.697C83.2279 107.366 82.7729 107.411 82.3859 107.283C80.1519 106.543 78.2719 105.284 76.6659 103.575C73.5769 100.285 72.0919 99.2829 68.0749 97.7009C68.1879 97.4459 68.4209 97.4749 68.6369 97.4699C70.6039 97.4139 72.5529 97.5529 74.4669 98.0309C78.0279 98.9229 80.7699 100.952 82.6069 104.127C83.3349 105.385 84.1789 106.481 85.4199 107.247C85.5929 107.355 85.7469 107.474 85.7639 107.698L83.5429 107.697ZM77.8909 96.3339C76.6619 96.0189 75.5139 95.7419 74.3769 95.4269C70.6479 94.3969 66.8899 94.6359 63.1249 95.1469C61.1839 95.4089 59.2469 95.7099 57.2979 95.9109C51.3599 96.5239 45.8489 95.1029 40.6899 92.2259C35.5479 89.3579 30.9879 85.7909 27.5209 80.9559C27.2569 80.5869 27.0089 80.2069 26.7579 79.8279C26.6799 79.7109 26.6149 79.5849 26.5269 79.4339C26.9449 79.2539 27.1879 79.5759 27.4519 79.7209C30.2079 81.2419 32.9089 82.8619 35.9209 83.8669C41.2379 85.6399 46.4979 85.6959 51.7369 83.5539C54.2619 82.5209 56.8089 82.3669 59.3049 83.6959C59.5379 83.8199 59.8479 83.8739 59.9619 84.2099C58.8609 84.5029 57.7699 84.7649 56.6969 85.0879C55.7569 85.3709 54.9629 85.8519 54.8829 86.9759C54.8149 87.9139 55.3349 88.5949 56.5229 89.1109C58.9409 90.1589 61.5029 90.4229 64.1019 90.4629C67.0809 90.5089 69.9829 90.9189 72.7339 92.1469C74.3059 92.8489 75.6919 93.8279 77.0239 94.8929C77.4499 95.2329 77.7649 95.6519 77.8909 96.3339ZM110.218 57.3739C109.971 56.8529 109.829 56.5479 109.683 56.2469C107.348 51.4059 103.427 49.5789 98.2359 50.9809C95.8559 51.6239 93.5378 52.5369 91.0729 52.8129C79.2839 54.1369 69.0759 51.1139 61.1699 41.8409C60.9509 41.5829 60.4539 41.2099 60.6749 40.9789C61.0519 40.5839 61.3449 41.1859 61.6239 41.3819C67.6699 45.6589 74.3529 47.6639 81.7699 47.0829C85.1039 46.8199 88.2939 45.9069 91.4829 44.9609C94.3019 44.1249 97.1579 43.5389 100.129 44.1439C106.582 45.4569 110.54 50.5279 110.218 57.3739ZM80.6599 82.6149C80.7729 82.5659 80.8449 82.5259 80.9219 82.5029C83.8419 81.6089 86.1079 79.7469 88.1899 77.6099C90.2309 75.5169 92.1359 73.2879 94.3499 71.3589C99.0539 67.2589 104.45 66.0569 110.468 67.4189C111.97 67.7589 113.217 68.4779 114.315 69.4959C113.12 69.4039 112.062 69.3769 111.016 69.2339C108.893 68.9419 107.165 69.6609 105.731 71.1809C104.579 72.3994 103.441 73.6305 102.317 74.8739C98.2119 79.4179 92.9689 81.6499 87.0089 82.4309C85.2029 82.6659 83.3969 82.8469 81.5709 82.7959C81.3089 82.7909 81.0199 82.8849 80.6599 82.6149ZM107.611 64.1899C106.572 64.4119 105.791 64.0579 105.011 63.9319C100.157 63.1469 95.6898 63.9219 91.4769 66.6029C85.0789 70.6729 78.1039 71.3429 70.8279 69.5599C69.9509 69.3439 69.0709 69.0349 68.1689 68.3209C69.1909 68.2619 69.9749 68.4929 70.7639 68.6079C74.4439 69.1459 77.7369 68.1389 80.7759 66.1249C83.2449 64.4889 85.7989 63.0079 88.6069 62.0389C94.0649 60.1619 99.4979 59.8819 104.846 62.4639C105.764 62.9049 106.646 63.4099 107.611 64.1899Z"
    fill="#F15524"
  />
  <path
    fill-rule="evenodd"
    clip-rule="evenodd"
    d="M84.3141 41.4911C81.4331 43.1401 78.5221 43.4921 75.4951 43.2871C66.8551 42.7041 59.9971 38.5591 54.0461 32.5891C53.8651 32.4081 53.6201 32.2041 53.7191 31.9411C53.8331 31.6281 54.1671 31.7931 54.3951 31.7941C60.1621 31.8031 65.4511 33.2501 69.9771 36.9961C70.9181 37.7741 71.8991 38.5051 72.8761 39.2381C75.8571 41.4751 79.1811 42.2601 82.8471 41.5541C83.2671 41.4751 83.6841 41.4381 84.3141 41.4911Z"
    fill="#F15524"
  />
</svg>

<svg xmlns="http://www.w3.org/2000/svg" width="128" height="128" fill="none"><path fill="#F05323" fill-rule="evenodd" d="M27.216 20.304c.864.38 1.807.322 2.71.432 6.884.834 12.467 4.156 17.314 8.928 3.96 3.899 7.384 8.27 11.01 12.462 2.97 3.434 6.153 6.628 10.013 9.075 4.074 2.579 8.502 4.015 13.335 4.138q.258.006.513.023c.015.001.026.042.08.143-1.797 1.248-3.751 2.167-5.885 2.67-4.824 1.136-9.183.176-13-3.032-1.066-.896-2.092-1.845-3.184-2.708-1.711-1.356-3.663-2.064-5.87-1.801-3.096.371-4.781 2.714-4.061 5.76 1.125 4.757 3.853 8.483 7.666 11.459 4.113 3.21 8.834 4.958 13.958 5.681 5.083.715 10.144.707 15.118-.789.325-.099.644-.135.805.229.15.348-.226.411-.396.55-1.172.946-2.334 1.904-3.544 2.803-4.375 3.243-9.29 5.114-14.714 5.512-3.93.286-7.36-1.083-10.4-3.522-2.396-1.919-4.262-4.332-6.23-6.65-1.64-1.929-3.263-3.869-4.914-5.786-1.022-1.187-2.116-2.305-3.411-3.207-2.041-1.417-4.276-1.899-6.722-1.409-3.333.668-5.152 3.429-4.255 6.728 1.946 7.153 6.49 11.612 13.845 13.067.208.041.466-.035.63.28-3.796.776-7.513.581-11.16-.615-7.353-2.415-13.288-6.619-16.901-13.66-2.258-4.398-3.212-9.132-3.445-14.036-.15-3.151-.032-6.32-.52-9.449-.578-3.696-1.465-7.296-3.616-10.452-2.424-3.558-5.762-5.375-10.097-5.287-.51.01-1.021.002-1.546.002-.005-.355.288-.423.468-.558 3.608-2.704 7.779-4.175 12.039-5.428 2.403-.707 4.868-1.121 7.359-1.379.18-.019.41.069.52-.174zM15.04 25.583c.925.978 1.899 1.657 3.154 1.844 1.537.229 3.127-.612 3.65-1.905.365-.9.32-.962-.62-.888-.507.039-1.017.064-1.524.121-1.537.17-3.071.362-4.66.828" clip-rule="evenodd"/><path fill="#F15524" fill-rule="evenodd" d="M127.923 80.218c-1.112.447-2.148 1.072-3.376 1.25-2.965.43-5.646-.118-7.922-2.167-.422-.38-.852-.756-1.231-1.174-1.862-2.05-4.166-3.19-6.921-3.433-.216-.02-.431-.08-.677-.126 2.675-2.362 7.299-2.821 10.673-1.1 1.39.71 2.554 1.699 3.595 2.83 1.628 1.773 3.55 3.057 5.859 3.746zm-44.38 27.479c-.315-.331-.77-.286-1.157-.414-2.234-.74-4.114-1.999-5.72-3.708-3.09-3.29-4.574-4.292-8.591-5.874.113-.255.346-.226.562-.231 1.967-.056 3.916.083 5.83.56 3.56.893 6.303 2.922 8.14 6.097.728 1.258 1.572 2.354 2.813 3.12.173.108.327.227.344.451zM77.89 96.334c-1.23-.315-2.377-.592-3.514-.907-3.73-1.03-7.487-.791-11.252-.28-1.941.262-3.878.563-5.827.764-5.938.613-11.45-.808-16.608-3.685-5.142-2.868-9.702-6.435-13.17-11.27-.263-.37-.511-.75-.762-1.128-.078-.117-.143-.243-.231-.394.418-.18.66.142.925.287 2.756 1.52 5.457 3.14 8.469 4.146 5.317 1.773 10.577 1.829 15.816-.313 2.525-1.033 5.072-1.187 7.568.142.233.124.543.178.657.514-1.101.293-2.192.555-3.265.878-.94.283-1.734.764-1.814 1.888-.068.938.452 1.619 1.64 2.135 2.418 1.048 4.98 1.312 7.579 1.352 2.979.046 5.88.456 8.632 1.684 1.572.702 2.958 1.68 4.29 2.746.426.34.74.759.867 1.44m32.327-38.96c-.247-.521-.389-.826-.535-1.127-2.335-4.841-6.256-6.668-11.447-5.266-2.38.643-4.698 1.556-7.163 1.832-11.79 1.324-21.997-1.7-29.903-10.972-.22-.258-.716-.631-.495-.862.377-.395.67.207.949.403 6.046 4.277 12.729 6.282 20.146 5.7 3.334-.262 6.524-1.175 9.713-2.121 2.819-.836 5.675-1.422 8.646-.817 6.453 1.313 10.411 6.384 10.089 13.23M80.66 82.614c.113-.048.185-.088.262-.111 2.92-.894 5.186-2.756 7.268-4.893 2.04-2.093 3.946-4.322 6.16-6.251 4.704-4.1 10.1-5.302 16.118-3.94 1.502.34 2.749 1.059 3.847 2.077-1.195-.092-2.253-.12-3.299-.262-2.123-.292-3.851.427-5.285 1.947a225 225 0 0 0-3.414 3.693c-4.105 4.544-9.348 6.776-15.308 7.557-1.806.235-3.612.416-5.438.365-.262-.005-.551.089-.911-.181m26.95-18.425c-1.039.222-1.82-.132-2.6-.258-4.854-.785-9.321-.01-13.534 2.67-6.398 4.07-13.373 4.74-20.65 2.958-.876-.216-1.756-.525-2.658-1.24 1.022-.058 1.806.173 2.595.288 3.68.538 6.973-.47 10.012-2.483 2.469-1.636 5.023-3.117 7.83-4.086 5.459-1.877 10.892-2.157 16.24.425.918.44 1.8.946 2.765 1.726" clip-rule="evenodd"/><path fill="#F15524" fill-rule="evenodd" d="M84.314 41.491c-2.88 1.65-5.792 2.001-8.819 1.796-8.64-.583-15.498-4.728-21.449-10.698-.18-.18-.426-.385-.327-.648.114-.313.448-.148.676-.147 5.767.01 11.056 1.456 15.582 5.202.941.778 1.922 1.51 2.9 2.242 2.98 2.237 6.304 3.022 9.97 2.316.42-.079.837-.116 1.467-.063" clip-rule="evenodd"/></svg>
